Papirus-nordic/64x64/places/folder-nordic-torrent.svg

<svg xmlns="http://www.w3.org/2000/svg" width="64" height="64"><rect width="50" height="32" x="7" y="24" rx="2.5" ry="2.5" opacity=".2"/><path d="M7 44.5C7 45.885 8.115 47 9.5 47h45c1.385 0 2.5-1.115 2.5-2.5v-27c0-1.385-1.115-2.5-2.5-2.5H29v-2.5c0-1.385-1.115-2.5-2.5-2.5h-17A2.495 2.495 0 0 0 7 12.5" fill="#6c9b9a"/><rect width="50" height="32" x="7" y="22" rx="2.5" ry="2.5" opacity=".2"/><rect width="44" height="20" x="10" y="18" rx="2.5" ry="2.5" fill="#e4e4e4"/><rect width="50" height="32" x="7" y="23" rx="2.5" ry="2.5" fill="#82abaa"/><path d="M9.5 10A2.495 2.495 0 0 0 7 12.5v1C7 12.115 8.115 11 9.5 11h17c1.385 0 2.5 1.115 2.5 2.5v-1c0-1.385-1.115-2.5-2.5-2.5zM29 15v1h25.5c1.39 0 2.5 1.115 2.5 2.5v-1c0-1.385-1.11-2.5-2.5-2.5z" opacity=".1" fill="#fff"/><path d="M32 27a12 12 0 0 0-12 12 12 12 0 0 0 12 12h25v-2H32a10 10 0 0 1-10-10 10 10 0 0 1 10-10v-2zm0 3a9 9 0 1 0 0 18h25v-2H32a7 7 0 0 1 0-14 7 7 0 0 1 3 .686v-2.16A9 9 0 0 0 32 30zm0 3a6 6 0 0 0-6 6 6 6 0 0 0 6 6h25v-2H32a4 4 0 0 1-4-4 4 4 0 0 1 4-4 4 4 0 0 1 3.459 2h2.19A6 6 0 0 0 32 33z" fill="#4e6766"/></svg>

<svg xmlns="http://www.w3.org/2000/svg" width="64" height="64" version="1.1">
 <rect style="opacity:0.2" width="50" height="32" x="7" y="24" rx="2.5" ry="2.5"/>
 <path style="fill:#6c9b9a" d="M 7,44.5 C 7,45.885 8.115,47 9.5,47 H 54.5 C 55.885,47 57,45.885 57,44.5 V 17.5 C 57,16.115 55.885,15 54.5,15 H 29 V 12.5 C 29,11.115 27.885,10 26.5,10 H 9.5 C 8.115,10 7,11.115 7,12.5"/>
 <rect style="opacity:0.2" width="50" height="32" x="7" y="22" rx="2.5" ry="2.5"/>
 <rect style="fill:#e4e4e4" width="44" height="20" x="10" y="18" rx="2.5" ry="2.5"/>
 <rect style="fill:#82abaa" width="50" height="32" x="7" y="23" rx="2.5" ry="2.5"/>
 <path style="opacity:0.1;fill:#ffffff" d="M 9.5,10 C 8.115,10 7,11.115 7,12.5 V 13.5 C 7,12.115 8.115,11 9.5,11 H 26.5 C 27.885,11 29,12.115 29,13.5 V 12.5 C 29,11.115 27.885,10 26.5,10 Z M 29,15 V 16 H 54.5 C 55.89,16 57,17.115 57,18.5 V 17.5 C 57,16.115 55.89,15 54.5,15 Z"/>
 <path style="fill:#4e6766" d="M 32 27 A 12 12 0 0 0 20 39 A 12 12 0 0 0 32 51 L 57 51 L 57 49 L 38.619141 49 L 32 49 A 10 10 0 0 1 22 39 A 10 10 0 0 1 32 29 L 32 27 z M 32 30 C 27.029437 30 23 34.029437 23 39 C 23 43.970563 27.029437 48 32 48 L 57 48 L 57 46 L 32 46 C 28.134007 46 25 42.865993 25 39 C 25 35.134007 28.134007 32 32 32 C 33.038472 32.0032 34.063232 32.23733 35 32.685547 L 35 30.525391 C 34.03711 30.1811 33.022586 30.003427 32 30 z M 32 33 A 6 6 0 0 0 26 39 A 6 6 0 0 0 32 45 L 57 45 L 57 43 L 32 43 A 4 4 0 0 1 28 39 A 4 4 0 0 1 32 35 A 4 4 0 0 1 35.458984 37 L 37.648438 37 A 6 6 0 0 0 32 33 z"/>
</svg>
